report_00007_2020-12-11T15:55:29.892Z/cumulative-layout-shift/comparison/line/3_vs_4.svg

<svg width="640" height="500" xmlns="http://www.w3.org/2000/svg" xmlns:xlink="http://www.w3.org/1999/xlink"><path fill="#fff" d="M0 0h640v500H0z"/><defs><path id="d" stroke-width=".222" stroke="currentColor" d="M-1-1h2v2h-2z"/><path id="b" stroke-width=".222" stroke="currentColor" d="M0-1.33l-1.33 2h2.66z"/><path id="f" stroke-width=".222" stroke="currentColor" d="M0 1.33L1.265.411.782-1.067l-1.564-.009-.483 1.487z"/><use xlink:href="#b" id="c" stroke="currentColor" transform="rotate(180)"/><use xlink:href="#d" id="e" stroke="currentColor" transform="rotate(45)"/><circle id="a" stroke-width=".222" stroke="currentColor" cx="0" cy="0" r="1"/></defs><g fill="none" color="#000" stroke="currentColor"><path stroke="#000" d="M62.2 378.8h9m543.8 0h-9"/><text transform="translate(53.9 382.7)" stroke="none" fill="#000" font-family="Arial" font-size="12" text-anchor="end"><tspan>0.1</tspan></text></g><g fill="none" color="#000" stroke="currentColor"><path stroke="#000" d="M62.2 321.9h9m543.8 0h-9"/><text transform="translate(53.9 325.8)" stroke="none" fill="#000" font-family="Arial" font-size="12" text-anchor="end"><tspan>0.15</tspan></text></g><g fill="none" color="#000" stroke="currentColor"><path stroke="#000" d="M62.2 265h9m543.8 0h-9"/><text transform="translate(53.9 268.9)" stroke="none" fill="#000" font-family="Arial" font-size="12" text-anchor="end"><tspan>0.2</tspan></text></g><g fill="none" color="#000" stroke="currentColor"><path stroke="#000" d="M62.2 208.1h9m543.8 0h-9"/><text transform="translate(53.9 212)" stroke="none" fill="#000" font-family="Arial" font-size="12" text-anchor="end"><tspan>0.25</tspan></text></g><g fill="none" color="#000" stroke="currentColor"><path stroke="#000" d="M62.2 151.2h9m543.8 0h-9"/><text transform="translate(53.9 155.1)" stroke="none" fill="#000" font-family="Arial" font-size="12" text-anchor="end"><tspan>0.3</tspan></text></g><g fill="none" color="#000" stroke="currentColor"><path stroke="#000" d="M62.2 94.3h9m543.8 0h-9"/><text transform="translate(53.9 98.2)" stroke="none" fill="#000" font-family="Arial" font-size="12" text-anchor="end"><tspan>0.35</tspan></text></g><g fill="none" color="#000" stroke="currentColor"><path stroke="#000" d="M62.2 37.4h9m543.8 0h-9"/><text transform="translate(53.9 41.3)" stroke="none" fill="#000" font-family="Arial" font-size="12" text-anchor="end"><tspan>0.4</tspan></text></g><g fill="none" color="#000" stroke="currentColor"><path stroke="#000" d="M62.2 428v-9m0-400.9v9"/><text transform="translate(62.2 449.9)" stroke="none" fill="#000" font-family="Arial" font-size="12" text-anchor="middle"><tspan>0</tspan></text></g><g fill="none" color="#000" stroke="currentColor"><path stroke="#000" d="M118 428v-9m0-400.9v9"/><text transform="translate(118 449.9)" stroke="none" fill="#000" font-family="Arial" font-size="12" text-anchor="middle"><tspan>10</tspan></text></g><g fill="none" color="#000" stroke="currentColor"><path stroke="#000" d="M173.9 428v-9m0-400.9v9"/><text transform="translate(173.9 449.9)" stroke="none" fill="#000" font-family="Arial" font-size="12" text-anchor="middle"><tspan>20</tspan></text></g><g fill="none" color="#000" stroke="currentColor"><path stroke="#000" d="M229.7 428v-9m0-400.9v9"/><text transform="translate(229.7 449.9)" stroke="none" fill="#000" font-family="Arial" font-size="12" text-anchor="middle"><tspan>30</tspan></text></g><g fill="none" color="#000" stroke="currentColor"><path stroke="#000" d="M285.6 428v-9m0-400.9v9"/><text transform="translate(285.6 449.9)" stroke="none" fill="#000" font-family="Arial" font-size="12" text-anchor="middle"><tspan>40</tspan></text></g><g fill="none" color="#000" stroke="currentColor"><path stroke="#000" d="M341.4 428v-9m0-400.9v9"/><text transform="translate(341.4 449.9)" stroke="none" fill="#000" font-family="Arial" font-size="12" text-anchor="middle"><tspan>50</tspan></text></g><g fill="none" color="#000" stroke="currentColor"><path stroke="#000" d="M397.2 428v-9m0-400.9v9"/><text transform="translate(397.2 449.9)" stroke="none" fill="#000" font-family="Arial" font-size="12" text-anchor="middle"><tspan>60</tspan></text></g><g fill="none" color="#000" stroke="currentColor"><path stroke="#000" d="M453.1 428v-9m0-400.9v9"/><text transform="translate(453.1 449.9)" stroke="none" fill="#000" font-family="Arial" font-size="12" text-anchor="middle"><tspan>70</tspan></text></g><g fill="none" color="#000" stroke="currentColor"><path stroke="#000" d="M508.9 428v-9m0-400.9v9"/><text transform="translate(508.9 449.9)" stroke="none" fill="#000" font-family="Arial" font-size="12" text-anchor="middle"><tspan>80</tspan></text></g><g fill="none" color="#000" stroke="currentColor"><path stroke="#000" d="M564.7 428v-9m0-400.9v9"/><text transform="translate(564.7 449.9)" stroke="none" fill="#000" font-family="Arial" font-size="12" text-anchor="middle"><tspan>90</tspan></text></g><path stroke="#000" d="M62.2 18.1V428H615V18.1H62.2z" fill="none" color="#000"/><text transform="translate(279.8 467.9)" stroke="none" fill="#000" font-family="Arial" font-size="12" text-anchor="end" color="#000"><tspan>pages+cached+nointeractive</tspan></text><path stroke="#9400D3" d="M288.1 464h42.2M62.2 231.3l5.6 44.4 5.6-62.1h11.1l5.6 62.1 5.6-44.4 5.6-171 5.6-22.1 5.6 22.1 5.5-22.1 5.6-12.2 5.6 205.3 5.6-171 5.6 153.2 5.6 62.2 5.5-237.5 5.6 237.5h5.6l5.6-215.3 5.6 215.3h5.6l5.5-.1 5.6.1 5.6-215.3h5.6l5.6 215.3 5.6 12.9 5.5-250.4 5.6 250.4 5.6-250.4 5.6 237.5h5.6l5.6-215.4h5.6l5.5 215.4 5.6-237.5 5.6 237.4 5.6-237.4 5.6 237.5 5.6-.1 5.5-237.4h5.6l5.6 237.5 5.6-215.4h5.6l5.6 215.4 5.5-.1 5.6-237.4h5.6l5.6 237.5h5.6l5.6-215.4h5.5l5.6-22.1 5.6 250.4 5.6-228.3 5.6 215.4h5.6l5.5 12.9 5.6-12.9 5.6-44.4 5.6 44.3 5.6.1 5.6-237.5h16.7l5.6 237.5h11.2l5.6-215.3 5.5-22.2h5.6l5.6 237.5L481 38.2l5.6 237.5 5.6-237.5h5.5l5.6 250.4 5.6-250.4 5.6 237.4 5.6-237.4 5.6 22.1h5.5l5.6 215.3 5.6-237.4 5.6 22.1 5.6 215.4 5.6-144.5 5.5 144.5h5.6l5.6-44.4 5.6 44.3 5.6-237.4 5.6 22.1 5.5 215.4h5.6l5.6-.1L615 38.2" fill="none" color="#000"/><text transform="translate(279.8 485.9)" stroke="none" fill="#000" font-family="Arial" font-size="12" text-anchor="end" color="#000"><tspan>pages+cached+noadtech</tspan></text><path stroke="#009E73" d="M288.1 482h42.2M62.2 275.7l5.6 110.1h5.6l5.6-97.2 5.5-12.9h5.6l5.6-144.4 5.6 157.3 5.6 97.2 5.6-254.5 5.5 144.4h5.6l5.6 110.1 5.6-154.4h5.6l5.6-100.1 5.5 144.4 5.6-44.3 5.6 44.3 5.6-215.3 5.6 325.4 5.6-154.4 5.5-100.1 5.6-70.9 5.6 325.4 5.6-254.5 5.6 100.1h5.6l5.5 44.3h5.6l5.6-215.3 5.6 325.4 5.6-97.2 5.6-157.3 5.6 254.5 5.5-110.1 5.6-44.3 5.6 154.4 5.6-110.1h5.6l5.6-144.4 5.5 144.4 5.6 12.9 5.6-12.9 5.6-44.3 5.6 44.3 5.6-44.3 5.5 154.4 5.6-110.1 5.6-144.4 5.6 157.3 5.6-157.3h5.6l5.5 144.4 5.6 12.9 5.6-12.9 5.6 12.9 5.6-157.3 5.6 157.3 5.5 131.5 5.6-131.5h5.6l5.6-12.9 5.6 110.1 5.6-97.2 5.5-57.2 5.6 57.2 5.6 97.2h5.6l5.6-110.1 5.6-62.1 5.6 62.1 5.5 12.9h5.6l5.6-12.9 5.6-144.4h5.6l5.6 254.5 5.5-110.1 5.6 110.1 5.6-110.1 5.6-144.4 5.6 144.4 5.6-144.4 5.5 144.4h11.2l5.6 12.9 5.6-12.9 5.6-144.4 5.5 157.3 5.6 97.2 5.6-325.4 5.6 171 5.6 44.3h5.6l5.5 12.9h5.6l5.6-57.2 5.6 44.3" fill="none" color="#000"/><text transform="translate(554.4 467.9)" stroke="none" fill="#000" font-family="Arial" font-size="12" text-anchor="end" color="#000"><tspan>score p10=0.1</tspan></text><path stroke="#56B4E9" d="M562.7 464h42.2M62.2 378.8H615" fill="none" color="#000"/><g><text transform="translate(554.4 485.9)" stroke="none" fill="#000" font-family="Arial" font-size="12" text-anchor="end" color="#000"><tspan>score median=0.25</tspan></text><path stroke="#E69F00" d="M562.7 482h42.2M62.2 208.1H615" fill="none" color="#000"/></g><g fill="none" color="#000" stroke="currentColor"><path stroke="#000" d="M62.2 18.1V428H615V18.1H62.2z"/></g></svg>

<?xml version="1.0" encoding="utf-8"  standalone="no"?>
<svg 
 width="640" height="500"
 viewBox="0 0 640 500"
 xmlns="http://www.w3.org/2000/svg"
 xmlns:xlink="http://www.w3.org/1999/xlink"
>

<title>Gnuplot</title>
<desc>Produced by GNUPLOT 5.4 patchlevel 0 </desc>

<g id="gnuplot_canvas">

<rect x="0" y="0" width="640" height="500" fill="#ffffff"/>
<defs>

	<circle id='gpDot' r='0.5' stroke-width='0.5' stroke='currentColor'/>
	<path id='gpPt0' stroke-width='0.222' stroke='currentColor' d='M-1,0 h2 M0,-1 v2'/>
	<path id='gpPt1' stroke-width='0.222' stroke='currentColor' d='M-1,-1 L1,1 M1,-1 L-1,1'/>
	<path id='gpPt2' stroke-width='0.222' stroke='currentColor' d='M-1,0 L1,0 M0,-1 L0,1 M-1,-1 L1,1 M-1,1 L1,-1'/>
	<rect id='gpPt3' stroke-width='0.222' stroke='currentColor' x='-1' y='-1' width='2' height='2'/>
	<rect id='gpPt4' stroke-width='0.222' stroke='currentColor' fill='currentColor' x='-1' y='-1' width='2' height='2'/>
	<circle id='gpPt5' stroke-width='0.222' stroke='currentColor' cx='0' cy='0' r='1'/>
	<use xlink:href='#gpPt5' id='gpPt6' fill='currentColor' stroke='none'/>
	<path id='gpPt7' stroke-width='0.222' stroke='currentColor' d='M0,-1.33 L-1.33,0.67 L1.33,0.67 z'/>
	<use xlink:href='#gpPt7' id='gpPt8' fill='currentColor' stroke='none'/>
	<use xlink:href='#gpPt7' id='gpPt9' stroke='currentColor' transform='rotate(180)'/>
	<use xlink:href='#gpPt9' id='gpPt10' fill='currentColor' stroke='none'/>
	<use xlink:href='#gpPt3' id='gpPt11' stroke='currentColor' transform='rotate(45)'/>
	<use xlink:href='#gpPt11' id='gpPt12' fill='currentColor' stroke='none'/>
	<path id='gpPt13' stroke-width='0.222' stroke='currentColor' d='M0,1.330 L1.265,0.411 L0.782,-1.067 L-0.782,-1.076 L-1.265,0.411 z'/>
	<use xlink:href='#gpPt13' id='gpPt14' fill='currentColor' stroke='none'/>
	<filter id='textbox' filterUnits='objectBoundingBox' x='0' y='0' height='1' width='1'>
	  <feFlood flood-color='#FFFFFF' flood-opacity='1' result='bgnd'/>
	  <feComposite in='SourceGraphic' in2='bgnd' operator='atop'/>
	</filter>
	<filter id='greybox' filterUnits='objectBoundingBox' x='0' y='0' height='1' width='1'>
	  <feFlood flood-color='lightgrey' flood-opacity='1' result='grey'/>
	  <feComposite in='SourceGraphic' in2='grey' operator='atop'/>
	</filter>
</defs>
<g fill="none" color="#FFFFFF" stroke="black" stroke-width="1.00" stroke-linecap="butt" stroke-linejoin="miter">
</g>
<g fill="none" color="black" stroke="currentColor" stroke-width="1.00" stroke-linecap="butt" stroke-linejoin="miter">
	<path stroke='black'  d='M62.2,378.8 L71.2,378.8 M615.0,378.8 L606.0,378.8  '/>	<g transform="translate(53.9,382.7)" stroke="none" fill="black" font-family="Arial" font-size="12.00"  text-anchor="end">
		<text><tspan font-family="Arial" > 0.1</tspan></text>
	</g>
</g>
<g fill="none" color="black" stroke="currentColor" stroke-width="1.00" stroke-linecap="butt" stroke-linejoin="miter">
	<path stroke='black'  d='M62.2,321.9 L71.2,321.9 M615.0,321.9 L606.0,321.9  '/>	<g transform="translate(53.9,325.8)" stroke="none" fill="black" font-family="Arial" font-size="12.00"  text-anchor="end">
		<text><tspan font-family="Arial" > 0.15</tspan></text>
	</g>
</g>
<g fill="none" color="black" stroke="currentColor" stroke-width="1.00" stroke-linecap="butt" stroke-linejoin="miter">
	<path stroke='black'  d='M62.2,265.0 L71.2,265.0 M615.0,265.0 L606.0,265.0  '/>	<g transform="translate(53.9,268.9)" stroke="none" fill="black" font-family="Arial" font-size="12.00"  text-anchor="end">
		<text><tspan font-family="Arial" > 0.2</tspan></text>
	</g>
</g>
<g fill="none" color="black" stroke="currentColor" stroke-width="1.00" stroke-linecap="butt" stroke-linejoin="miter">
	<path stroke='black'  d='M62.2,208.1 L71.2,208.1 M615.0,208.1 L606.0,208.1  '/>	<g transform="translate(53.9,212.0)" stroke="none" fill="black" font-family="Arial" font-size="12.00"  text-anchor="end">
		<text><tspan font-family="Arial" > 0.25</tspan></text>
	</g>
</g>
<g fill="none" color="black" stroke="currentColor" stroke-width="1.00" stroke-linecap="butt" stroke-linejoin="miter">
	<path stroke='black'  d='M62.2,151.2 L71.2,151.2 M615.0,151.2 L606.0,151.2  '/>	<g transform="translate(53.9,155.1)" stroke="none" fill="black" font-family="Arial" font-size="12.00"  text-anchor="end">
		<text><tspan font-family="Arial" > 0.3</tspan></text>
	</g>
</g>
<g fill="none" color="black" stroke="currentColor" stroke-width="1.00" stroke-linecap="butt" stroke-linejoin="miter">
	<path stroke='black'  d='M62.2,94.3 L71.2,94.3 M615.0,94.3 L606.0,94.3  '/>	<g transform="translate(53.9,98.2)" stroke="none" fill="black" font-family="Arial" font-size="12.00"  text-anchor="end">
		<text><tspan font-family="Arial" > 0.35</tspan></text>
	</g>
</g>
<g fill="none" color="black" stroke="currentColor" stroke-width="1.00" stroke-linecap="butt" stroke-linejoin="miter">
	<path stroke='black'  d='M62.2,37.4 L71.2,37.4 M615.0,37.4 L606.0,37.4  '/>	<g transform="translate(53.9,41.3)" stroke="none" fill="black" font-family="Arial" font-size="12.00"  text-anchor="end">
		<text><tspan font-family="Arial" > 0.4</tspan></text>
	</g>
</g>
<g fill="none" color="black" stroke="currentColor" stroke-width="1.00" stroke-linecap="butt" stroke-linejoin="miter">
	<path stroke='black'  d='M62.2,428.0 L62.2,419.0 M62.2,18.1 L62.2,27.1  '/>	<g transform="translate(62.2,449.9)" stroke="none" fill="black" font-family="Arial" font-size="12.00"  text-anchor="middle">
		<text><tspan font-family="Arial" > 0</tspan></text>
	</g>
</g>
<g fill="none" color="black" stroke="currentColor" stroke-width="1.00" stroke-linecap="butt" stroke-linejoin="miter">
	<path stroke='black'  d='M118.0,428.0 L118.0,419.0 M118.0,18.1 L118.0,27.1  '/>	<g transform="translate(118.0,449.9)" stroke="none" fill="black" font-family="Arial" font-size="12.00"  text-anchor="middle">
		<text><tspan font-family="Arial" > 10</tspan></text>
	</g>
</g>
<g fill="none" color="black" stroke="currentColor" stroke-width="1.00" stroke-linecap="butt" stroke-linejoin="miter">
	<path stroke='black'  d='M173.9,428.0 L173.9,419.0 M173.9,18.1 L173.9,27.1  '/>	<g transform="translate(173.9,449.9)" stroke="none" fill="black" font-family="Arial" font-size="12.00"  text-anchor="middle">
		<text><tspan font-family="Arial" > 20</tspan></text>
	</g>
</g>
<g fill="none" color="black" stroke="currentColor" stroke-width="1.00" stroke-linecap="butt" stroke-linejoin="miter">
	<path stroke='black'  d='M229.7,428.0 L229.7,419.0 M229.7,18.1 L229.7,27.1  '/>	<g transform="translate(229.7,449.9)" stroke="none" fill="black" font-family="Arial" font-size="12.00"  text-anchor="middle">
		<text><tspan font-family="Arial" > 30</tspan></text>
	</g>
</g>
<g fill="none" color="black" stroke="currentColor" stroke-width="1.00" stroke-linecap="butt" stroke-linejoin="miter">
	<path stroke='black'  d='M285.6,428.0 L285.6,419.0 M285.6,18.1 L285.6,27.1  '/>	<g transform="translate(285.6,449.9)" stroke="none" fill="black" font-family="Arial" font-size="12.00"  text-anchor="middle">
		<text><tspan font-family="Arial" > 40</tspan></text>
	</g>
</g>
<g fill="none" color="black" stroke="currentColor" stroke-width="1.00" stroke-linecap="butt" stroke-linejoin="miter">
	<path stroke='black'  d='M341.4,428.0 L341.4,419.0 M341.4,18.1 L341.4,27.1  '/>	<g transform="translate(341.4,449.9)" stroke="none" fill="black" font-family="Arial" font-size="12.00"  text-anchor="middle">
		<text><tspan font-family="Arial" > 50</tspan></text>
	</g>
</g>
<g fill="none" color="black" stroke="currentColor" stroke-width="1.00" stroke-linecap="butt" stroke-linejoin="miter">
	<path stroke='black'  d='M397.2,428.0 L397.2,419.0 M397.2,18.1 L397.2,27.1  '/>	<g transform="translate(397.2,449.9)" stroke="none" fill="black" font-family="Arial" font-size="12.00"  text-anchor="middle">
		<text><tspan font-family="Arial" > 60</tspan></text>
	</g>
</g>
<g fill="none" color="black" stroke="currentColor" stroke-width="1.00" stroke-linecap="butt" stroke-linejoin="miter">
	<path stroke='black'  d='M453.1,428.0 L453.1,419.0 M453.1,18.1 L453.1,27.1  '/>	<g transform="translate(453.1,449.9)" stroke="none" fill="black" font-family="Arial" font-size="12.00"  text-anchor="middle">
		<text><tspan font-family="Arial" > 70</tspan></text>
	</g>
</g>
<g fill="none" color="black" stroke="currentColor" stroke-width="1.00" stroke-linecap="butt" stroke-linejoin="miter">
	<path stroke='black'  d='M508.9,428.0 L508.9,419.0 M508.9,18.1 L508.9,27.1  '/>	<g transform="translate(508.9,449.9)" stroke="none" fill="black" font-family="Arial" font-size="12.00"  text-anchor="middle">
		<text><tspan font-family="Arial" > 80</tspan></text>
	</g>
</g>
<g fill="none" color="black" stroke="currentColor" stroke-width="1.00" stroke-linecap="butt" stroke-linejoin="miter">
	<path stroke='black'  d='M564.7,428.0 L564.7,419.0 M564.7,18.1 L564.7,27.1  '/>	<g transform="translate(564.7,449.9)" stroke="none" fill="black" font-family="Arial" font-size="12.00"  text-anchor="middle">
		<text><tspan font-family="Arial" > 90</tspan></text>
	</g>
</g>
<g fill="none" color="black" stroke="currentColor" stroke-width="1.00" stroke-linecap="butt" stroke-linejoin="miter">
</g>
<g fill="none" color="black" stroke="currentColor" stroke-width="1.00" stroke-linecap="butt" stroke-linejoin="miter">
	<path stroke='black'  d='M62.2,18.1 L62.2,428.0 L615.0,428.0 L615.0,18.1 L62.2,18.1 Z  '/></g>
<g fill="none" color="black" stroke="currentColor" stroke-width="1.00" stroke-linecap="butt" stroke-linejoin="miter">
</g>
	<g id="gnuplot_plot_1" ><title>pages+cached+nointeractive</title>
<g fill="none" color="black" stroke="currentColor" stroke-width="1.00" stroke-linecap="butt" stroke-linejoin="miter">
	<g transform="translate(279.8,467.9)" stroke="none" fill="black" font-family="Arial" font-size="12.00"  text-anchor="end">
		<text><tspan font-family="Arial" >pages+cached+nointeractive</tspan></text>
	</g>
</g>
<g fill="none" color="black" stroke="currentColor" stroke-width="1.00" stroke-linecap="butt" stroke-linejoin="miter">
	<path stroke='rgb(148,   0, 211)'  d='M288.1,464.0 L330.3,464.0 M62.2,231.3 L67.8,275.7 L73.4,213.6 L79.0,213.6 L84.5,213.6 L90.1,275.7
		L95.7,231.3 L101.3,60.3 L106.9,38.2 L112.5,60.3 L118.0,38.2 L123.6,26.0 L129.2,231.3 L134.8,60.3
		L140.4,213.5 L146.0,275.7 L151.5,38.2 L157.1,275.7 L162.7,275.7 L168.3,60.4 L173.9,275.7 L179.5,275.7
		L185.0,275.6 L190.6,275.7 L196.2,60.4 L201.8,60.4 L207.4,275.7 L213.0,288.6 L218.5,38.2 L224.1,288.6
		L229.7,38.2 L235.3,275.7 L240.9,275.7 L246.5,60.3 L252.1,60.3 L257.6,275.7 L263.2,38.2 L268.8,275.6
		L274.4,38.2 L280.0,275.7 L285.6,275.6 L291.1,38.2 L296.7,38.2 L302.3,275.7 L307.9,60.3 L313.5,60.3
		L319.1,275.7 L324.6,275.6 L330.2,38.2 L335.8,38.2 L341.4,275.7 L347.0,275.7 L352.6,60.3 L358.1,60.3
		L363.7,38.2 L369.3,288.6 L374.9,60.3 L380.5,275.7 L386.1,275.7 L391.6,288.6 L397.2,275.7 L402.8,231.3
		L408.4,275.6 L414.0,275.7 L419.6,38.2 L425.1,38.2 L430.7,38.2 L436.3,38.2 L441.9,275.7 L447.5,275.7
		L453.1,275.7 L458.7,60.4 L464.2,38.2 L469.8,38.2 L475.4,275.7 L481.0,38.2 L486.6,275.7 L492.2,38.2
		L497.7,38.2 L503.3,288.6 L508.9,38.2 L514.5,275.6 L520.1,38.2 L525.7,60.3 L531.2,60.3 L536.8,275.6
		L542.4,38.2 L548.0,60.3 L553.6,275.7 L559.2,131.2 L564.7,275.7 L570.3,275.7 L575.9,231.3 L581.5,275.6
		L587.1,38.2 L592.7,60.3 L598.2,275.7 L603.8,275.7 L609.4,275.6 L615.0,38.2  '/></g>
	</g>
	<g id="gnuplot_plot_2" ><title>pages+cached+noadtech</title>
<g fill="none" color="black" stroke="currentColor" stroke-width="1.00" stroke-linecap="butt" stroke-linejoin="miter">
	<g transform="translate(279.8,485.9)" stroke="none" fill="black" font-family="Arial" font-size="12.00"  text-anchor="end">
		<text><tspan font-family="Arial" >pages+cached+noadtech</tspan></text>
	</g>
</g>
<g fill="none" color="black" stroke="currentColor" stroke-width="1.00" stroke-linecap="butt" stroke-linejoin="miter">
	<path stroke='rgb(  0, 158, 115)'  d='M288.1,482.0 L330.3,482.0 M62.2,275.7 L67.8,385.8 L73.4,385.8 L79.0,288.6 L84.5,275.7 L90.1,275.7
		L95.7,131.3 L101.3,288.6 L106.9,385.8 L112.5,131.3 L118.0,275.7 L123.6,275.7 L129.2,385.8 L134.8,231.4
		L140.4,231.4 L146.0,131.3 L151.5,275.7 L157.1,231.4 L162.7,275.7 L168.3,60.4 L173.9,385.8 L179.5,231.4
		L185.0,131.3 L190.6,60.4 L196.2,385.8 L201.8,131.3 L207.4,231.4 L213.0,231.4 L218.5,275.7 L224.1,275.7
		L229.7,60.4 L235.3,385.8 L240.9,288.6 L246.5,131.3 L252.1,385.8 L257.6,275.7 L263.2,231.4 L268.8,385.8
		L274.4,275.7 L280.0,275.7 L285.6,131.3 L291.1,275.7 L296.7,288.6 L302.3,275.7 L307.9,231.4 L313.5,275.7
		L319.1,231.4 L324.6,385.8 L330.2,275.7 L335.8,131.3 L341.4,288.6 L347.0,131.3 L352.6,131.3 L358.1,275.7
		L363.7,288.6 L369.3,275.7 L374.9,288.6 L380.5,131.3 L386.1,288.6 L391.6,420.1 L397.2,288.6 L402.8,288.6
		L408.4,275.7 L414.0,385.8 L419.6,288.6 L425.1,231.4 L430.7,288.6 L436.3,385.8 L441.9,385.8 L447.5,275.7
		L453.1,213.6 L458.7,275.7 L464.2,288.6 L469.8,288.6 L475.4,275.7 L481.0,131.3 L486.6,131.3 L492.2,385.8
		L497.7,275.7 L503.3,385.8 L508.9,275.7 L514.5,131.3 L520.1,275.7 L525.7,131.3 L531.2,275.7 L536.8,275.7
		L542.4,275.7 L548.0,288.6 L553.6,275.7 L559.2,131.3 L564.7,288.6 L570.3,385.8 L575.9,60.4 L581.5,231.4
		L587.1,275.7 L592.7,275.7 L598.2,288.6 L603.8,288.6 L609.4,231.4 L615.0,275.7  '/></g>
	</g>
	<g id="gnuplot_plot_3" ><title>score p10=0.1</title>
<g fill="none" color="black" stroke="currentColor" stroke-width="1.00" stroke-linecap="butt" stroke-linejoin="miter">
	<g transform="translate(554.4,467.9)" stroke="none" fill="black" font-family="Arial" font-size="12.00"  text-anchor="end">
		<text><tspan font-family="Arial" >score p10=0.1</tspan></text>
	</g>
</g>
<g fill="none" color="black" stroke="currentColor" stroke-width="1.00" stroke-linecap="butt" stroke-linejoin="miter">
	<path stroke='rgb( 86, 180, 233)'  d='M562.7,464.0 L604.9,464.0 M62.2,378.8 L67.8,378.8 L73.4,378.8 L79.0,378.8 L84.5,378.8 L90.1,378.8
		L95.7,378.8 L101.3,378.8 L106.9,378.8 L112.5,378.8 L118.0,378.8 L123.6,378.8 L129.2,378.8 L134.8,378.8
		L140.4,378.8 L146.0,378.8 L151.5,378.8 L157.1,378.8 L162.7,378.8 L168.3,378.8 L173.9,378.8 L179.5,378.8
		L185.0,378.8 L190.6,378.8 L196.2,378.8 L201.8,378.8 L207.4,378.8 L213.0,378.8 L218.5,378.8 L224.1,378.8
		L229.7,378.8 L235.3,378.8 L240.9,378.8 L246.5,378.8 L252.1,378.8 L257.6,378.8 L263.2,378.8 L268.8,378.8
		L274.4,378.8 L280.0,378.8 L285.6,378.8 L291.1,378.8 L296.7,378.8 L302.3,378.8 L307.9,378.8 L313.5,378.8
		L319.1,378.8 L324.6,378.8 L330.2,378.8 L335.8,378.8 L341.4,378.8 L347.0,378.8 L352.6,378.8 L358.1,378.8
		L363.7,378.8 L369.3,378.8 L374.9,378.8 L380.5,378.8 L386.1,378.8 L391.6,378.8 L397.2,378.8 L402.8,378.8
		L408.4,378.8 L414.0,378.8 L419.6,378.8 L425.1,378.8 L430.7,378.8 L436.3,378.8 L441.9,378.8 L447.5,378.8
		L453.1,378.8 L458.7,378.8 L464.2,378.8 L469.8,378.8 L475.4,378.8 L481.0,378.8 L486.6,378.8 L492.2,378.8
		L497.7,378.8 L503.3,378.8 L508.9,378.8 L514.5,378.8 L520.1,378.8 L525.7,378.8 L531.2,378.8 L536.8,378.8
		L542.4,378.8 L548.0,378.8 L553.6,378.8 L559.2,378.8 L564.7,378.8 L570.3,378.8 L575.9,378.8 L581.5,378.8
		L587.1,378.8 L592.7,378.8 L598.2,378.8 L603.8,378.8 L609.4,378.8 L615.0,378.8  '/></g>
	</g>
	<g id="gnuplot_plot_4" ><title>score median=0.25</title>
<g fill="none" color="black" stroke="currentColor" stroke-width="1.00" stroke-linecap="butt" stroke-linejoin="miter">
	<g transform="translate(554.4,485.9)" stroke="none" fill="black" font-family="Arial" font-size="12.00"  text-anchor="end">
		<text><tspan font-family="Arial" >score median=0.25</tspan></text>
	</g>
</g>
<g fill="none" color="black" stroke="currentColor" stroke-width="1.00" stroke-linecap="butt" stroke-linejoin="miter">
	<path stroke='rgb(230, 159,   0)'  d='M562.7,482.0 L604.9,482.0 M62.2,208.1 L67.8,208.1 L73.4,208.1 L79.0,208.1 L84.5,208.1 L90.1,208.1
		L95.7,208.1 L101.3,208.1 L106.9,208.1 L112.5,208.1 L118.0,208.1 L123.6,208.1 L129.2,208.1 L134.8,208.1
		L140.4,208.1 L146.0,208.1 L151.5,208.1 L157.1,208.1 L162.7,208.1 L168.3,208.1 L173.9,208.1 L179.5,208.1
		L185.0,208.1 L190.6,208.1 L196.2,208.1 L201.8,208.1 L207.4,208.1 L213.0,208.1 L218.5,208.1 L224.1,208.1
		L229.7,208.1 L235.3,208.1 L240.9,208.1 L246.5,208.1 L252.1,208.1 L257.6,208.1 L263.2,208.1 L268.8,208.1
		L274.4,208.1 L280.0,208.1 L285.6,208.1 L291.1,208.1 L296.7,208.1 L302.3,208.1 L307.9,208.1 L313.5,208.1
		L319.1,208.1 L324.6,208.1 L330.2,208.1 L335.8,208.1 L341.4,208.1 L347.0,208.1 L352.6,208.1 L358.1,208.
